svg/falcon.svg

<svg viewBox="0 0 20 20" xmlns="http://www.w3.org/2000/svg">
<rect width="100%" height="100%" fill="#202020"/>
<path d="M16.9753 2.9178C17.0181 2.82258 17.08 2.72737 17.1038 2.70832C17.1324 2.68928 17.1609 2.67024 17.1705 2.67024C17.2038 2.67024 17.1228 3.26058 17.0562 3.50338C16.9277 3.97946 16.8848 4.08419 16.6706 4.50791C16.2707 5.30296 15.7136 5.79332 14.3187 6.58837C13.3237 7.15015 12.7762 7.82142 12.5192 8.78786C12.4287 9.11635 12.3049 9.77811 12.2192 10.3589C12.1907 10.5684 12.1335 10.9017 12.0954 11.0968C11.9669 11.711 11.9669 11.7157 12.0478 11.7157C12.2526 11.7157 13.0143 12.606 13.4142 13.3059L13.4187 13.314C13.4711 13.4093 13.549 13.5509 13.5999 13.6296C14.1569 14.6151 14.9948 15.6672 15.6518 16.2052C15.9422 16.448 16.6134 16.9003 16.961 17.0954C17.1181 17.1811 17.2847 17.2859 17.3323 17.324C17.4704 17.4477 17.418 17.8572 17.2609 17.8572C17.2419 17.8572 17.0705 17.7239 16.88 17.5668C16.6896 17.4049 16.3944 17.1764 16.2231 17.0574C16.0517 16.9336 15.8898 16.8146 15.8612 16.786C15.7136 16.6527 14.8281 16.0338 14.3759 15.7481C13.4047 15.134 12.1478 14.5722 11.7479 14.5722C11.4575 14.5722 11.2052 14.7484 10.9338 15.1435C10.7386 15.4292 10.6862 15.4911 10.3816 15.7862C10.1292 16.0386 9.84835 16.2099 9.54842 16.3052C9.41988 16.3432 9.44844 16.448 9.60555 16.5146C9.76265 16.586 9.8912 16.786 9.8912 16.9669C9.8912 17.1097 9.74837 17.1811 9.71505 17.0574C9.696 16.9812 9.35323 16.7622 9.25325 16.7622C9.23421 16.7622 9.22945 16.8431 9.24373 16.9383C9.33418 17.443 9.32942 17.4716 9.22945 17.6144C9.17232 17.6905 9.12947 17.7715 9.12947 17.7905C9.12947 17.8524 8.97236 18 8.90571 18C8.86286 18 8.85334 17.9667 8.87239 17.881C8.89143 17.8 8.87715 17.7286 8.82954 17.6763C8.76765 17.6096 8.76289 17.562 8.80574 17.4001C8.87239 17.1621 8.82954 17.0098 8.7248 17.0954C8.68672 17.1288 8.65339 17.1811 8.65339 17.2145C8.65339 17.2478 8.5915 17.3382 8.51533 17.4097C8.43915 17.4858 8.36774 17.5906 8.35822 17.6429C8.32966 17.8191 8.21064 17.7429 8.12018 17.4858C8.01068 17.1716 8.04401 17.0383 8.27729 16.8526C8.37726 16.7717 8.46296 16.6765 8.46296 16.6384C8.46296 16.5051 8.31537 16.5765 8.07733 16.8193C7.84882 17.0526 7.82977 17.0621 7.76788 16.9812C7.71551 16.905 7.71551 16.8717 7.76788 16.767C7.80597 16.7003 7.87738 16.5432 7.93451 16.4147L8.03449 16.1909H8.34394C8.51533 16.1909 8.69148 16.1719 8.73908 16.1481C8.76438 16.134 8.80793 16.1133 8.85308 16.0919C8.88441 16.077 8.9165 16.0617 8.9438 16.0481C9.33418 15.8672 9.53414 15.4863 9.53414 14.9293C9.53414 14.5865 9.51509 14.5199 9.37703 14.2818C9.17232 13.92 8.90095 13.6867 8.46772 13.4915C7.55365 13.0821 6.82048 12.6441 6.5396 12.3347C6.40629 12.1871 6.40153 12.1871 6.30156 12.2775C6.12541 12.4394 6.00163 12.4775 5.63028 12.4775C5.30655 12.4775 5.25418 12.4918 5.14944 12.5965C5.06851 12.6822 5.03995 12.7488 5.05899 12.8012C5.14944 13.0154 5.14468 13.0488 5.02566 13.0488C4.85904 13.0488 4.67336 12.8869 4.60671 12.6917C4.56387 12.5632 4.56387 12.4632 4.61147 12.2632C4.6448 12.1157 4.68765 11.9871 4.71145 11.9728C4.73049 11.9585 4.74954 11.7919 4.74954 11.6015C4.74954 11.1825 4.82571 10.9731 5.05899 10.7731C5.43985 10.4351 5.91117 10.2923 7.12994 10.1447C7.89642 10.0495 8.17255 9.9733 8.51057 9.74478C8.91523 9.47818 9.11995 9.14968 9.51033 8.16896C10.3768 5.97899 10.8005 5.59813 13.2238 4.8602C13.3399 4.82621 13.4864 4.78042 13.6161 4.73988L13.6164 4.73978C13.7045 4.71222 13.7849 4.6871 13.8427 4.66977C13.9159 4.64535 14.0118 4.61591 14.1051 4.58725L14.1054 4.58716C14.1938 4.55998 14.28 4.53351 14.3425 4.51267C15.7851 4.06515 16.6991 3.50814 16.9753 2.9178Z" fill="#F0AD4E"/>
<path d="M2.75 5.76475C2.75 4.6174 3.30701 3.46528 4.41152 2.32269C4.68764 2.04181 4.84475 1.93707 4.84475 2.03705C4.84475 2.05609 4.76858 2.24652 4.67812 2.46552C4.35915 3.2082 4.21633 4.03658 4.32106 4.56027C4.43056 5.12204 4.65432 5.57432 5.09231 6.12181C5.6398 6.8026 6.14445 7.19299 7.55364 8.03089C8.86286 8.8069 9.06282 9.07826 8.64387 9.49721C8.3487 9.78762 8.10113 9.88284 7.46319 9.94949C6.46818 10.0542 6.13493 10.1209 5.70169 10.3065L5.5303 10.378L5.46841 10.0352C5.35416 9.39724 5.01138 8.89259 4.39247 8.44508C3.60218 7.87378 3.31177 7.58337 3.11182 7.16918C2.95948 6.85973 2.84522 6.53124 2.84522 6.39793C2.84522 6.34081 2.82617 6.27892 2.79761 6.26463C2.76904 6.25035 2.75 6.02659 2.75 5.76475Z" fill="#F0AD4E"/>
<path d="M8.86763 13.9676C8.85811 14.0009 8.84383 14.1199 8.82954 14.2437C8.80098 14.577 8.57722 15.0197 8.32014 15.2578C8.01069 15.5482 7.82025 15.6386 7.65839 15.5767C7.59174 15.5529 7.4013 15.5148 7.23944 15.5006C7.0014 15.472 6.9157 15.4863 6.80144 15.5529C6.67766 15.6243 6.65386 15.6719 6.65386 15.8195C6.65386 15.8251 6.65386 15.8304 6.65385 15.8356C6.65379 15.9304 6.65377 15.977 6.67405 15.9889C6.69365 16.0004 6.73219 15.9795 6.80797 15.9384C6.81353 15.9354 6.81928 15.9323 6.82525 15.929C6.90142 15.8909 6.99188 15.8576 7.0252 15.8576C7.12518 15.8576 7.08709 15.9528 6.96331 16.01C6.82525 16.0719 6.78716 16.1909 6.77764 16.5622C6.77288 16.8431 6.85857 16.9526 6.93475 16.7527C6.95855 16.6908 7.04901 16.6051 7.1347 16.5575C7.22515 16.5099 7.34894 16.3861 7.41559 16.2861C7.53937 16.0766 7.60602 16.0433 7.60602 16.1861C7.60602 16.4908 7.76312 16.5051 7.89643 16.2099C7.97736 16.0481 8.02021 16.0052 8.07734 16.029C8.23444 16.0957 8.42011 16.1052 8.48677 16.0481C8.55342 15.9909 8.54866 15.9719 8.4582 15.8767C8.40107 15.8148 8.35822 15.7576 8.37251 15.7481C8.47724 15.6719 8.70576 15.6196 8.93904 15.6196C9.35799 15.6196 9.41512 15.5482 9.41512 15.0102C9.41512 14.4627 9.2723 14.0723 9.03902 13.9723C8.92 13.9247 8.88191 13.92 8.86763 13.9676Z" fill="#F0AD4E"/>
<path d="M13.0952 15.234C12.8762 15.1245 12.7001 15.015 12.7001 14.9912C12.7001 14.9388 12.7762 14.9436 12.881 15.0007C12.9238 15.0245 13.0809 15.1007 13.2237 15.1673C13.5332 15.3149 14.1902 15.672 14.2235 15.7101C14.2521 15.7434 14.3854 15.8291 14.6044 15.9481C14.6948 15.9957 14.8567 16.1052 14.9614 16.1861C15.0157 16.228 15.0776 16.2763 15.1333 16.3198C15.1851 16.3602 15.2315 16.3965 15.2614 16.4194C15.3185 16.4623 15.3947 16.5194 15.428 16.548C15.4566 16.5718 15.5708 16.6575 15.6756 16.7336C15.7803 16.8146 15.8755 16.8907 15.8898 16.905C15.9041 16.9193 15.9564 16.9669 16.0136 17.005C16.223 17.1431 16.7943 17.681 16.7943 17.7334C16.7943 17.8429 16.3849 17.9191 15.6898 17.9429C15.211 17.9576 15.0368 17.9651 15.002 17.8991C14.9808 17.8588 15.0115 17.7911 15.0567 17.681C15.1519 17.462 15.1471 17.3573 15.0376 17.0669C14.7948 16.3956 14.1473 15.791 13.0952 15.234Z" fill="#F0AD4E"/>
</svg>

<svg xmlns="http://www.w3.org/2000/svg" viewBox="0 0 20 20">
  <rect width="100%" height="100%" fill="#202020"/>
  <path fill="#F0AD4E" d="M16.98 2.92c.04-.1.1-.2.12-.21l.07-.04a3.93 3.93 0 0 1-.5 1.84c-.4.8-.96 1.28-2.35 2.08a3.4 3.4 0 0 0-1.8 2.2c-.1.33-.22.99-.3 1.57l-.12.74c-.13.61-.13.62-.05.62.2 0 .96.89 1.36 1.59l.19.32c.56.99 1.4 2.04 2.05 2.58a11.68 11.68 0 0 0 1.68 1.11c.14.13.09.54-.07.54-.02 0-.19-.14-.38-.3a10.37 10.37 0 0 0-1.02-.77c-.15-.14-1.03-.76-1.48-1.04a8.17 8.17 0 0 0-2.63-1.18c-.3 0-.54.18-.82.57-.2.29-.24.35-.55.65-.25.25-.53.42-.83.52-.13.03-.1.14.06.2.15.08.28.28.28.46 0 .14-.14.21-.17.09-.02-.08-.37-.3-.47-.3-.02 0-.02.08 0 .18.08.5.08.53-.02.67a.59.59 0 0 0-.1.18c0 .06-.16.21-.22.21-.05 0-.06-.03-.04-.12.02-.08 0-.15-.04-.2-.06-.07-.07-.12-.02-.28.06-.24.02-.39-.09-.3-.03.03-.07.08-.07.11 0 .04-.06.13-.13.2a.62.62 0 0 0-.16.23c-.03.18-.15.1-.24-.15-.1-.32-.08-.45.16-.64.1-.08.18-.17.18-.21 0-.13-.14-.06-.38.18-.23.23-.25.24-.31.16-.05-.07-.05-.1 0-.21l.16-.36.1-.22h.31c.18 0 .35-.02.4-.04a2.38 2.38 0 0 1 .2-.1c.4-.18.6-.56.6-1.12 0-.34-.02-.41-.16-.65a1.8 1.8 0 0 0-.91-.79 6.8 6.8 0 0 1-1.93-1.16c-.13-.14-.14-.14-.24-.05-.17.16-.3.2-.67.2-.32 0-.38.01-.48.12-.08.08-.11.15-.1.2.1.22.1.25-.02.25-.17 0-.36-.16-.42-.36-.05-.13-.05-.23 0-.43a.83.83 0 0 1 .1-.29c.02-.01.04-.18.04-.37 0-.42.08-.63.3-.83.39-.33.86-.48 2.08-.63.77-.1 1.04-.17 1.38-.4.4-.26.61-.59 1-1.57.87-2.2 1.29-2.57 3.71-3.31l.4-.12.22-.07.27-.08.23-.08c1.45-.44 2.36-1 2.64-1.6Z"/>
  <path fill="#F0AD4E" d="M2.75 5.76c0-1.14.56-2.3 1.66-3.44.28-.28.43-.38.43-.28l-.16.43a3.98 3.98 0 0 0-.36 2.09c.11.56.33 1.01.77 1.56.55.68 1.05 1.07 2.46 1.91 1.31.78 1.51 1.05 1.1 1.47-.3.29-.55.38-1.19.45-1 .1-1.33.17-1.76.36l-.17.07-.06-.34a2.43 2.43 0 0 0-1.08-1.6c-.79-.57-1.08-.86-1.28-1.27-.15-.31-.26-.64-.26-.77 0-.06-.02-.12-.05-.14a1.42 1.42 0 0 1-.05-.5ZM8.87 13.97l-.04.27c-.03.34-.25.78-.51 1.02-.3.29-.5.38-.66.32a2.23 2.23 0 0 0-.42-.08c-.24-.03-.32-.01-.44.05-.12.07-.15.12-.15.27v.02c0 .09 0 .14.02.15.02.01.06-.01.14-.05l.02-.01a.68.68 0 0 1 .2-.07c.1 0 .06.1-.07.15-.13.06-.17.18-.18.55 0 .28.08.4.15.2a.5.5 0 0 1 .2-.2.95.95 0 0 0 .29-.27c.12-.21.19-.25.19-.1 0 .3.15.32.29.02.08-.16.12-.2.18-.18.15.07.34.08.4.02.07-.06.07-.08-.02-.17-.06-.07-.1-.12-.09-.13.1-.08.34-.13.57-.13.42 0 .48-.07.48-.61 0-.55-.15-.94-.38-1.04-.12-.05-.16-.05-.17 0ZM13.1 15.23c-.22-.1-.4-.21-.4-.24 0-.05.08-.05.18.01l.34.17a11.68 11.68 0 0 1 1.91 1.15l.13.1.17.13a7.86 7.86 0 0 0 .46.36l.12.1c.21.13.78.67.78.72 0 .11-.4.19-1.1.21-.48.02-.65.03-.69-.04-.02-.04.01-.1.06-.22.1-.22.09-.32-.02-.61-.25-.67-.9-1.28-1.94-1.84Z"/>
</svg>
